contributed-vectors/time_tune.svg

<svg xmlns="http://www.w3.org/2000/svg" xml:space="preserve" style="fill-rule:evenodd;clip-rule:evenodd;stroke-linejoin:round;stroke-miterlimit:2" viewBox="0 0 192 192"><path d="M164.5 21.5c0-5.519-4.481-10-10-10h-133c-5.519 0-10 4.481-10 10v133c0 5.519 4.481 10 10 10h133c5.519 0 10-4.481 10-10v-133Z" style="fill:#ff837d" transform="translate(8 8)"/><path d="M83.763 99.373a13.269 13.269 0 0 0 3.255-8.095l1.673-35.373a5.942 5.942 0 0 1 5.936-5.662h2.746a5.942 5.942 0 0 1 5.936 5.662l1.829 38.671a13.269 13.269 0 0 1-4.088 10.219l-26.043 24.878a5.944 5.944 0 0 1-8.212-.001l-1.057-1.011a5.942 5.942 0 0 1-.371-8.203l18.396-21.085Z" style="fill:#fff" transform="matrix(.79066 0 0 .79066 19.767 20.275)"/></svg>

<?xml version="1.0" encoding="UTF-8" standalone="no"?>
<!DOCTYPE svg PUBLIC "-//W3C//DTD SVG 1.1//EN" "http://www.w3.org/Graphics/SVG/1.1/DTD/svg11.dtd">
<svg width="100%" height="100%" viewBox="0 0 192 192" version="1.1" xmlns="http://www.w3.org/2000/svg" xmlns:xlink="http://www.w3.org/1999/xlink" xml:space="preserve" xmlns:serif="http://www.serif.com/" style="fill-rule:evenodd;clip-rule:evenodd;stroke-linejoin:round;stroke-miterlimit:2;">
    <g transform="matrix(1,0,0,1,8,8)">
        <g>
            <path d="M164.5,21.5C164.5,15.981 160.019,11.5 154.5,11.5L21.5,11.5C15.981,11.5 11.5,15.981 11.5,21.5L11.5,154.5C11.5,160.019 15.981,164.5 21.5,164.5L154.5,164.5C160.019,164.5 164.5,160.019 164.5,154.5L164.5,21.5Z" style="fill:rgb(255,131,125);"/>
        </g>
    </g>
    <g transform="matrix(0.790664,0,0,0.790664,19.7673,20.2748)">
        <g id="Layer1">
            <path d="M83.763,99.373C85.729,97.119 86.877,94.266 87.018,91.278C87.515,80.759 88.691,55.905 88.691,55.905C88.84,52.736 91.454,50.243 94.627,50.243C95.532,50.243 96.468,50.243 97.373,50.243C100.546,50.243 103.16,52.736 103.309,55.905C103.309,55.905 104.561,82.366 105.138,94.576C105.319,98.413 103.828,102.141 101.05,104.795C94.331,111.213 81.562,123.412 75.007,129.673C72.71,131.868 69.092,131.867 66.795,129.672C66.444,129.336 66.089,128.997 65.738,128.661C63.441,126.466 63.278,122.852 65.367,120.458C65.367,120.458 77.85,106.15 83.763,99.373Z" style="fill:white;"/>
        </g>
    </g>
</svg>
